X:1
T:Dearer Than All
T:Dearer Than All
T:Alfred Henry Ackley
T:Alfred Henry Ackley, 1915
T:Public Domain Courtesy of the Cyber Hymnal™
T:Public Domain Courtesy of the Cyber Hymnal™
C:Alfred Henry Ackley
Z:Public Domain
Z:Courtesy of the Cyber Hymnal™
%%score ( 1 2 ) ( 3 4 )
L:1/8
Q:1/4=150
M:6/4
K:Bb
V:1 treble 
V:2 treble 
V:3 bass 
V:4 bass 
V:1
 [DF]2 [B,D]2 [CE]2 [DF]2 [DB]2 [Ec]2 | [Fd]2 [DB]2 [Ge]2 [Fd]6 | %2
w: 1.~Ye who the love of a|mo- ther have known,|
w: 2.~Je- sus en- treats you in|Him to con- fide,|
w: 3.~Hea- ven with all of its|beau- ty so rare,|
 [Fd]2 [Ec]2 [D=B]2 [Ec]2 [Fd]2 [Ec]2 | [DB]2 [FA]2 [EG]2 [DF]6 | %4
w: There is a love sweet- er|far you may own,|
w: Make Him your con- stant com-|pan- ion and guide;|
w: With my Re- deem- er can|nev- er com- pare;|
 [DF]2 [B,D]2 [CE]2 [DF]2 [DB]2 [Ec]2 | [Fd]2 [DB]2 [Ge]2 [Fd]6 | %6
w: Love all suf- fi- cient for|sin to a- tone;|
w: He can do more than the|whole world be- side;|
w: He is the glo- ry trans-|cend- ent up there;|
 [Fc]2 [Fd]2 [Fc]2 [=EB]2 [EA]2 [EG]2 | (c6 F6) ||"^Refrain" [Fd]2 [=E^c]2 [Fd]2 [G_e]4 [Fd]2 | %9
w: |||
w: Je- sus is dear- er than|all. *|Dear- er than all, yes,|
w: |||
 [=Ed]2 [Ec]2 [EB]2 [EG]6 | [Ec]2 [D=B]2 [Ec]2 [Fd]4 [Ec]2 | [Dc]2 [DB]2 [EG]2 [DF]6 | %12
w: |||
w: dearer than all, He|is my king, be- fore|Him I fall; No|
w: |||
 [DF]2 [B,D]2 [CE]2 [DF]2 [FB]2 [Fc]2 | [Fd]2 [Ge]2 [_Af]2 [Ge]6 | %14
w: ||
w: friend like Je- sus my soul|can en- thrall, Je-|
w: ||
 [EG]2 [FA]2 [GB]2 [Fd]2 !fermata![DF]2 [Fd]2 | [Fe]2 [Fd]2 [Ec]2 [DB]6 |] %16
w: ||
w: sus is dear- er, far dear-|er than all. *|
w: ||
V:2
 x12 | x12 | x12 | x12 | x12 | x12 | x12 | E12 || x12 | x12 | x12 | x12 | x12 | x12 | x12 | x12 |] %16
V:3
 [B,,B,]2 [B,,F,]2 [B,,F,]2 [B,,B,]2 [B,,B,]2 [B,,B,]2 | [B,,B,]2 [B,,B,]2 [B,,B,]2 [B,,B,]6 | %2
 [F,B,]2 [F,A,]2 [F,^G,]2 [F,A,]2 [F,A,]2 F,2 | [B,,F,]2 [B,,F,]2 [B,,G,]2 [B,,B,]6 | %4
 [B,,B,]2 [B,,F,]2 [B,,F,]2 [B,,B,]2 [B,,B,]2 [B,,B,]2 | [B,,B,]2 [B,,B,]2 [B,,B,]2 [B,,B,]6 | %6
 [F,A,]2 [F,B,]2 [F,A,]2 [C,G,]2 [C,C]2 [C,B,]2 | [F,A,]12 || %8
 [B,,B,]2 [B,,B,]2 [B,,B,]2 [B,,B,]4 [B,,B,]2 | [C,B,]2 [C,B,]2 [C,G,]2 C4 B,2 | %10
 [F,A,]2 [F,^G,]2 [F,A,]2 [F,A,]4 F,2 | [B,,F,]2 [B,,F,]2 [B,,G,]2 [B,,B,]6 | %12
 [B,,B,]2 [B,,F,]2 [B,,F,]2 [B,,B,]2 [D,B,]2 [F,A,]2 | B,2 B,2 B,2 [E,B,]6 | %14
 [E,B,]2 [E,B,]2 [E,B,]2 [F,B,]2 !fermata![F,B,]2 [F,B,]2 | [F,C]2 [F,B,]2 F,2 [B,,F,]6 |] %16
V:4
 x12 | x12 | x10 F,2 | x12 | x12 | x12 | x12 | x12 || x12 | x6 C,6 | x10 F,2 | x12 | x12 | %13
 B,2 B,2 B,2 x6 | x12 | x4 F,2 x6 |] %16

